X: 1
T: Rannie MacLellan's Reel
R: Reel
C: Brenda Stubbert
O: Cape Breton Island
S: http://www.cranfordpub.com
D: In Jig Time,1994; Fiddler's Choice, Jerry Holland; Natalie MacMaster Live
B: Brenda Stubbert's Collection
Z: psc, (re-formatted,updated 9/20/04)
N: http://www.cranfordpub.com/stubbert
H: copyrights Stubbert Music, SOCAN
L: 1/8
%Q: 333
M: C|
F: http://cranfordpub.com/tunes/abcs/stubbertarchive.abc 2006-03-03 22:57:40 UT
K: D
|: fe \
| "D"dBAd BAFD | "Em"E2FE "G"DB,B,D | "D"A,B,DE "Bm"F2 ED | "Em"EBBA "A7"B2Bc |
| "D"defe dBAF | "Em"E2FE "G"DB,B,D | "D"A,B,DE F2 dB | "A7"AFEF "D"D2 :|
|: FG \
| "D"Ad{e}dc d2cA | "Em"Beed "(A7)"e2de | "D"f2af "Em"egfe | "G"dBAd "A7"FEEF |
| "D"Dd{e}dc d2cA | "Em"Beed "(A7)"e2de | "D"f2af "Em"egfe | "G"dB"A7"AF "D"D2 :|
